X:1
%
T:Rye Whiskey [2]
S:Levi Hall (1944, southwestern Pa.)
M:4/4
L:1/8
B:Bayard - Dance to the Fiddle, March to the Fife (1981, No. 113)
K:G
(3DEF||G>BA>G D2 (3DEF|G>BAG B<d d2|e>fe>d B2 {B}(3cBA|G>BA>G EDEF|
G2 E>G D2 D>E|G2 (3BAG Bd d2|e>fe>d B2 {c}B>A|G>BA>G E>F G||
|:(3d/e/f/|g2 ge B2 BA|G>BA>G Bd de/f/|g2 ed B2 BA|1 G>BA>G E>FG:|2 GBAG EDEF||

